modules/web-icons/icons/text-type.svg

<svg xmlns="http://www.w3.org/2000/svg" width="64" height="64"><path d="M59.055 46.34l4.346-4.346c.8-.8.8-2.097 0-2.897L60.503 36.2c-.8-.8-2.097-.8-2.897 0l-4.345 4.345-4.346-4.345c-.8-.8-2.097-.8-2.897 0l-2.897 2.897c-.8.8-.8 2.097 0 2.897l4.345 4.346-4.345 4.345c-.8.8-.8 2.097 0 2.897l2.897 2.897c.8.8 2.097.8 2.897 0l4.346-4.346 4.345 4.346c.8.8 2.097.8 2.897 0l2.897-2.897c.8-.8.8-2.097 0-2.897l-4.345-4.345zm-9.891-28.679V5.37H0v12.291h8.195v-4.097h12.29v36.873h-8.193v8.193h24.581v-8.193h-8.194V13.564H40.97v4.097z" fill-rule="evenodd" clip-rule="evenodd"/></svg>

<svg xmlns="http://www.w3.org/2000/svg" width="64" height="64" viewBox="0 0 64 64"><style>.st0{fill-rule:evenodd;clip-rule:evenodd}</style><path class="st0" d="M59.055 46.34l4.346-4.346c.8-.8.8-2.097 0-2.897L60.503 36.2c-.8-.8-2.097-.8-2.897 0l-4.345 4.345L48.915 36.2c-.8-.8-2.097-.8-2.897 0l-2.897 2.897c-.8.8-.8 2.097 0 2.897l4.345 4.346-4.345 4.345c-.8.8-.8 2.097 0 2.897l2.897 2.897c.8.8 2.097.8 2.897 0l4.346-4.346 4.345 4.346c.8.8 2.097.8 2.897 0l2.897-2.897c.8-.8.8-2.097 0-2.897L59.055 46.34zM49.164 17.661L49.164 13.564 49.164 5.37 0 5.37 0 13.564 0 17.661 8.195 17.661 8.195 13.564 20.485 13.564 20.485 50.437 12.292 50.437 12.292 58.63 36.873 58.63 36.873 50.437 28.679 50.437 28.679 13.564 40.97 13.564 40.97 17.661z" id="text-type"/></svg>
